source/svgs/bowtie/uE923-chart-bar.svg

<svg xmlns="http://www.w3.org/2000/svg" viewBox="0 0 448 448" enable-background="new 0 0 448 448"><path d="M0 0v448h448v-448h-448zm416 416h-384v-32h320v-64h-320v-64h192v-64h-192v-64h256v-64h-256v-32h384v384z"/></svg>

<svg xmlns="http://www.w3.org/2000/svg" viewBox="0 0 448 448"><path d="M0 0v448h448V0H0zm416 416H32v-32h320v-64H32v-64h192v-64H32v-64h256V64H32V32h384v384z"/></svg>
